icons/inbox-line.svg

<svg viewBox="0 0 24 24" fill="currentColor" xmlns="http://www.w3.org/2000/svg"><path d="M21 3C21.5523 3 22 3.44772 22 4V20C22 20.5523 21.5523 21 21 21H3C2.44772 21 2 20.5523 2 20V4C2 3.44772 2.44772 3 3 3H21ZM7.41604 14H4V19H20V14H16.584C15.8124 15.7659 14.0503 17 12 17C9.94968 17 8.1876 15.7659 7.41604 14ZM20 5H4V12H9C9 13.6569 10.3431 15 12 15C13.6569 15 15 13.6569 15 12H20V5Z"/></svg>

<svg xmlns="http://www.w3.org/2000/svg" viewBox="0 0 24 24">
    <g>
        <path fill="none" d="M0 0h24v24H0z"/>
        <path d="M3 3h18a1 1 0 0 1 1 1v16a1 1 0 0 1-1 1H3a1 1 0 0 1-1-1V4a1 1 0 0 1 1-1zm17 11h-3.416a5.001 5.001 0 0 1-9.168 0H4v5h16v-5zm0-2V5H4v7h5a3 3 0 0 0 6 0h5z"/>
    </g>
</svg>
